!!!OTL: Edward
!! From: "Folk Songs of the Southern Appalachians;
!! As Sung by Jean Ritchie"  2nd Edition.
!! University of Kentucky Press, 1997.
**kern
*clefG2
*k[b-]
*M4/4
*>Part I
{8f
8g
=1
4a
4a
(8a
8g)
4f
=2
4g
4f
2d}
=3
{4.cc;
8a
4.dd;}
{8cc
=4
2.a}
{8cc
8cc
=5
4dd
4cc
(8a
8g)
8f
8g
=6
(8a
8g)
4a
4d}
{4d
=7
4f
4f
4g
(8f
8g)
=8
4a
4a
4.a;}
{8d
=9
4f
4f
4g
4f
=10
2.d}
*>Part II
{8f
8g
=11
4a
4a
(8a
8g)
8f
8f
=12
4g
4g
4g
(8f
8g)
=13
4a
4a
8a
8g
(8f
8g)
=14
4a
4a
4.a}
{8d
=15
4f
4f
4g
4f
=16
2.d}
==
*-
